images/node-project-training/feedback-Christina.svg

<svg fill="none" height="60" viewBox="0 0 60 60" width="60" xmlns="http://www.w3.org/2000/svg"><circle cx="30" cy="30" fill="#689f40" r="30"/><path d="m22.344 40-4.104-17.832h3.624l1.752 8.568c.336 1.896.744 3.768 1.128 5.688h.096c.48-1.92.96-3.816 1.44-5.688l2.304-8.568h3.024l2.352 8.64c.456 1.848.936 3.696 1.416 5.616h.144c.336-1.92.672-3.744.984-5.616l1.8-8.64h3.384l-3.96 17.832h-4.44l-2.328-8.784c-.36-1.392-.648-2.808-.912-4.176h-.12c-.288 1.368-.576 2.784-.912 4.176l-2.304 8.784z" fill="#fff"/></svg>

<svg width="60" height="60" viewBox="0 0 60 60" fill="none" xmlns="http://www.w3.org/2000/svg">
<circle cx="30" cy="30" r="30" fill="#689F40"/>
<path d="M22.344 40L18.24 22.168H21.864L23.616 30.736C23.952 32.632 24.36 34.504 24.744 36.424H24.84C25.32 34.504 25.8 32.608 26.28 30.736L28.584 22.168H31.608L33.96 30.808C34.416 32.656 34.896 34.504 35.376 36.424H35.52C35.856 34.504 36.192 32.68 36.504 30.808L38.304 22.168H41.688L37.728 40H33.288L30.96 31.216C30.6 29.824 30.312 28.408 30.048 27.04H29.928C29.64 28.408 29.352 29.824 29.016 31.216L26.712 40H22.344Z" fill="white"/>
</svg>
